packages/kaspersky-hexa-ui-icons/src/iconsSVGs/16/MessageSolid.svg

<svg width="16" height="16" viewBox="0 0 16 16" fill="none" xmlns="http://www.w3.org/2000/svg">
<path fill-rule="evenodd" clip-rule="evenodd" d="M1 3.62036C1 2.17061 2.17525 0.995361 3.625 0.995361H12.375C13.8247 0.995361 15 2.17061 15 3.62036V9.57364C15 11.0234 13.8247 12.1986 12.375 12.1986H5.4648C5.21934 12.1986 4.98517 12.3017 4.81942 12.4828L2.82461 14.6617C2.17773 15.3683 1.00009 14.9106 1.00015 13.9526C1.00026 11.8537 1.00018 9.75477 1.0001 7.65583C1.00005 6.31068 1 4.96552 1 3.62036ZM5.33317 7.50442C5.70136 7.50442 5.99984 7.20594 5.99984 6.83775C5.99984 6.46956 5.70136 6.17108 5.33317 6.17108C4.96498 6.17108 4.6665 6.46956 4.6665 6.83775C4.6665 7.20594 4.96498 7.50442 5.33317 7.50442ZM8.66659 6.83775C8.66659 7.20594 8.36811 7.50442 7.99992 7.50442C7.63173 7.50442 7.33325 7.20594 7.33325 6.83775C7.33325 6.46956 7.63173 6.17108 7.99992 6.17108C8.36811 6.17108 8.66659 6.46956 8.66659 6.83775ZM11.3332 6.83775C11.3332 7.20594 11.0347 7.50442 10.6665 7.50442C10.2984 7.50442 9.99988 7.20594 9.99988 6.83775C9.99988 6.46956 10.2984 6.17108 10.6665 6.17108C11.0347 6.17108 11.3332 6.46956 11.3332 6.83775Z" fill="black"/>
</svg>

<svg xmlns="http://www.w3.org/2000/svg" width="16" height="16" fill="none" viewBox="0 0 16 16"><path fill="#000" fill-rule="evenodd" d="M1 3.6203C1 2.1706 2.1753.9953 3.625.9953h8.75C13.8247.9953 15 2.1706 15 3.6203v5.9533c0 1.4497-1.1753 2.625-2.625 2.625H5.4648a.875.875 0 0 0-.6454.2841l-1.9948 2.179c-.6469.7065-1.8245.2488-1.8244-.7091L1 7.6558zm4.3332 3.884a.6667.6667 0 1 0 0-1.3333.6667.6667 0 0 0 0 1.3333m3.3334-.6666a.6667.6667 0 1 1-1.3333 0 .6667.6667 0 0 1 1.3333 0m2.6666 0a.6667.6667 0 1 1-1.3334 0 .6667.6667 0 0 1 1.3334 0"/></svg>
